X:1
T:Over Yonder in the Palace of the King
T:Leroy Runyan, 1906
T:Over Yonder in the Palace of the King
T:Public Domain
T:Public Domain
T:Public Domain
C:Leroy Runyan, 1906
Z:Public Domain
%%score ( 1 2 ) ( 3 4 )
L:1/8
M:4/4
K:Ab
V:1 treble 
V:2 treble 
V:3 bass 
V:4 bass 
V:1
 [A,C]>[B,D] | [CE]>[CE] [=B,=D]>[_DF] [CE]2 [A,C]>[_B,D] | %2
w: 1.~When this|life of ours is o’er, And its|
w: 2.~Ma- ny|friends who’ve gone be- fore, O- ver|
w: 3.~O, what|hap- pi- ness ’twill be, When we|
 [CE]>[=B,=D] [_DF]>[A,C] [CE]2 [CE]>[CE] | [DF]>[FA] [EG]>[DF] [CE]>[EA] [EG]>[EA] | %4
w: cares op- press no more, When no|more to us its sor- rows it can|
w: on the o- ther shore, Lift their|hap- py voic- es there His praise to|
w: cross the crys- tal sea, And the|world and all its cares be- hind us|
 [EB]6 [A,C]>[B,D] | [CE]>[CE] [=B,=D]>[_DF] [CE]2 [CA]>[D=B] | %6
w: bring, We each|o- ther’s joys may share, In a|
w: sing; And they|beck- on us to come— Join them|
w: fling; When we|meet our Sav- ior there, And a|
 [Ec]>[DB] [CA]>[DF] [CE]2 [CE]>[CE] | [DF]>[FA] [EG]>[DF] [CE]>[CA] [DB]>[Ec] | [CA]6 || %9
w: hap- py meet- ing there, O- ver|yon- der in the pal- ace of the|King.|
w: in their hap- py home— O- ver|yon- der in the pal- ace of the|King.|
w: crown of glo- ry wear, O- ver|yon- der in the pal- ace of the|King.|
"^Refrain" [CE]>[CE] | [EA]4 [CE]2 (3(CE)[EA] | [Ac]4 [EA]2 (3([CE][EA])[Ac] | %12
w: I will|meet you, I * will|you, And for- * ev-|
w: |||
w: |||
 [ce]>[ce] [ce]>[Ec] [FA]>[FA] (3(AB)[_Dc] | (E2 F>F E2) [Ac]>[Bd] | [ce]4 [EA]2 (3([CA][DB])[Ec] | %15
w: er with the ran- somed we shall * sing;|I’ll * * * meet you,|I’ll greet you, * O-|
w: |||
w: |||
 [Fd]4 [DF]2 [DG]>[DF] | [CE]>[CE] [DF]>[CA] [EG]>[CA] [DB]>[Ec] | (C2 D>D C2) |] %18
w: ver yon- der in|the pal- ace of the King. * *||
w: |||
w: |||
V:2
 x2 | x8 | x8 | x8 | x8 | x8 | x8 | x8 | x6 || x2 | x6 C2 | x8 | x6 =D2 | B6 x2 | x8 | x8 | x8 | %17
w: ||||||||||greet||Yes|and||||
 A6 |] %18
w: |
V:3
 [A,,E,]>[A,,E,] | [A,,A,]>[A,,A,] [A,,A,]>[A,,A,] [A,,A,]2 [A,,E,]>[A,,E,] | %2
w: ~ ~|~ ~ ~ ~ ~ ~ ~|
 [A,,A,]>[A,,A,] [A,,A,]>[A,,E,] [A,,A,]2 [A,,A,]>[A,,A,] | %3
w: ~ ~ ~ ~ ~ ~ ~|
 [D,A,]>[D,A,] [D,A,]>[D,A,] [A,,A,]>[C,A,] [B,,B,]>[C,A,] | [E,G,]6 [A,,E,]>[A,,E,] | %5
w: ~ ~ ~ ~ ~ ~ ~ ~|~ ~ ~|
 [A,,A,]>[A,,A,] [A,,A,]>[A,,A,] [A,,A,]2 [A,,A,]>[A,,A,] | %6
w: ~ ~ ~ ~ ~ ~ ~|
 [A,,A,]>[A,,A,] [A,,A,]>[A,,A,] [A,,A,]2 [A,,A,]>[A,,A,] | %7
w: ~ ~ ~ ~ ~ ~ ~|
 [D,A,]>[D,A,] [D,A,]>[D,A,] [E,A,]>[E,A,] [E,G,]>[E,G,] | [A,,A,]6 || [A,,A,]>[A,,A,] | %10
w: ~ ~ ~ ~ ~ ~ ~ ~|~|I will|
 [A,,C]>[A,,C] [A,,C]>[A,,C] [A,,A,]>[A,,A,] [A,,A,]>[A,,C] | %11
w: meet you, I will greet you, And for-|
 [A,,E]>[A,,E] [A,,E]>[A,,E] [A,,C]2 [A,C]>[A,C] | A,>A, A,>A, [F,A,]>[F,A,] [B,,B,]>[B,,A,] | %13
w: ev- er we shall sing, I will|meet you, and for- ev- er with the|
 [E,G,]>[E,G,] [B,,A,]>[B,,A,] ([E,G,]>[D,B,]) [C,A,]>[B,,G,] | %14
w: sing; Yes, I’ll meet you, * and I’ll|
 [A,,A,]>[A,,A,] [A,,A,]>[A,,A,] [A,,C]>[A,,C] [A,,A,]>[A,,A,] | %15
w: greet you in the pal- ace of the|
 [D,A,]>[D,A,] [D,A,]>[D,A,] [D,A,]2 [D,B,]>[D,A,] | %16
w: King— * * * * * *|
 [E,A,]>[E,A,] [E,A,]>[E,A,] [E,B,]>[E,A,] [E,G,]>[E,G,] | A,2 F,>F, E,2 |] %18
w: ||
V:4
 x2 | x8 | x8 | x8 | x8 | x8 | x8 | x8 | x6 || x2 | x8 | x8 | A,>A, A,>A, x4 | x8 | x8 | x8 | x8 | %17
w: ||||||||||||ran- somed we shall|||||
 A,,6 |] %18
w: |

